assets/icons/sun.svg

<svg xmlns="http://www.w3.org/2000/svg" viewBox="0 0 24 24" fill="none">
<path
        d="M11.9982 3.29083V1.76758M5.83985 18.1586L4.76275 19.2357M11.9982 22.2327V20.7094M19.2334 4.76468L18.1562 5.84179M20.707 12.0001H22.2303M18.1562 18.1586L19.2334 19.2357M1.76562 12.0001H3.28888M4.76267 4.76462L5.83977 5.84173M15.7104 8.28781C17.7606 10.3381 17.7606 13.6622 15.7104 15.7124C13.6601 17.7627 10.336 17.7627 8.28574 15.7124C6.23548 13.6622 6.23548 10.3381 8.28574 8.28781C10.336 6.23756 13.6601 6.23756 15.7104 8.28781Z"
        stroke="currentColor"
        stroke-width="1.5"
        stroke-linecap="round"
        stroke-linejoin="round"
    />
</svg>

<svg xmlns="http://www.w3.org/2000/svg" width="24" height="24" fill="none" viewBox="0 0 24 24">
  <path stroke="currentColor" stroke-linecap="round" stroke-linejoin="round" stroke-width="1.5" d="M11.998 3.29V1.769M5.84 18.158l-1.077 1.078m7.235 2.997v-1.524m7.235-15.944-1.077 1.077M20.707 12h1.523m-4.074 6.159 1.077 1.077M1.766 12h1.523m1.474-7.235L5.84 5.842m9.87 2.446a5.25 5.25 0 1 1-7.424 7.424 5.25 5.25 0 0 1 7.424-7.424Z"/>
</svg>
